src/icons/solid/communication/transfer.svg

<svg width="24" height="24" viewBox="0 0 24 24" fill="none" xmlns="http://www.w3.org/2000/svg">
<g clip-path="url(#clip0_4191_737)">
<path d="M22.8299 10.013L16.7372 5.11461C16.5871 4.99465 16.377 4.96466 16.1869 5.04463C16.0068 5.12461 15.8868 5.29455 15.8868 5.48449V8.92335H9.01364C4.60164 8.92335 1 12.3222 1 16.4908V17.5905C1 18.3702 1.6703 19 2.49068 19C3.31105 19 3.98136 18.3702 3.98136 17.5905V16.6008C3.98136 13.8917 6.24238 11.6824 9.01364 11.6824H15.8868V15.2812C15.8868 15.4712 16.0068 15.6411 16.1869 15.7211C16.2569 15.7511 16.327 15.7611 16.397 15.7611C16.5171 15.7611 16.6371 15.7211 16.7271 15.6411L22.8199 10.7427C22.93 10.6528 23 10.5128 23 10.3729C23 10.2329 22.93 10.093 22.8199 10.003L22.8299 10.013Z" fill="#3C3B44"/>
</g>
<defs>
<clipPath id="clip0_4191_737">
<rect width="24" height="24" fill="white"/>
</clipPath>
</defs>
</svg>

<svg xmlns="http://www.w3.org/2000/svg" width="24" height="24" fill="none" viewBox="0 0 24 24"><g clip-path="url(#a)"><path fill="currentColor" d="m22.83 10.013-6.093-4.898a.54.54 0 0 0-.55-.07c-.18.08-.3.25-.3.44v3.438H9.014C4.602 8.923 1 12.323 1 16.491v1.1C1 18.37 1.67 19 2.49 19c.821 0 1.491-.63 1.491-1.41v-.99c0-2.708 2.261-4.918 5.033-4.918h6.873v3.6c0 .19.12.36.3.44.07.03.14.04.21.04.12 0 .24-.04.33-.12l6.093-4.9a.5.5 0 0 0 .18-.37.5.5 0 0 0-.18-.369z"/></g><defs><clipPath id="a"><path fill="currentColor" d="M0 0h24v24H0z"/></clipPath></defs></svg>
